resources/svg/drop-o.svg

<svg xmlns="http://www.w3.org/2000/svg" viewBox="0 0 15 15" fill="none"><path d="M7.5 0.5L11.7857 4.64226C12.6126 5.45792 13.1719 6.49138 13.3935 7.61304C13.6151 8.73469 13.4892 9.89463 13.0315 10.9474C12.5738 12.0001 11.8047 12.8989 10.8207 13.5309C9.83665 14.1629 8.68147 14.5 7.5 14.5C6.31853 14.5 5.16335 14.1629 4.17932 13.5309C3.19529 12.8989 2.42621 12.0001 1.96851 10.9474C1.51082 9.89463 1.38489 8.73469 1.6065 7.61304C1.82812 6.49138 2.38743 5.45792 3.21429 4.64226L7.5 0.5Z" stroke="black" stroke-linecap="round" stroke-linejoin="round"/></svg>

<svg xmlns="http://www.w3.org/2000/svg" viewBox="0 0 15 15" fill="none"><path d="M7.5.5l4.286 4.142a5.737 5.737 0 011.607 2.971 5.62 5.62 0 01-.362 3.334 5.85 5.85 0 01-2.21 2.584A6.15 6.15 0 017.5 14.5a6.15 6.15 0 01-3.32-.97 5.85 5.85 0 01-2.211-2.583 5.62 5.62 0 01-.363-3.334 5.737 5.737 0 011.608-2.97L7.5.5z" stroke="currentColor" stroke-linecap="round" stroke-linejoin="round"/></svg>
